X:198
%%titlespace -10
%%musicspace -10
T:The Ton
M:2/4
L:1/8
K:A
c/d/ | "A"ea ac/d/ | ce ec/B/ | "D"AA "E7"BB | "A"c/B/c/d/ cc/d/ | "A"ea ac/d/ | 
ce ec/B/ | "D"AA "E7"BB | "A"A2 A :|]|: c/d/ | "A"ea "D"fd | "A"ea "D"fd | "A"e3/c/ Ac | 
"E7"B/A/B/c/ Bc/d/ | "A"ea "D"fd | "A"ea "D"fd | "A"c/e/c/A/ "E7"B/d/B/G/ | "A"A3 :|]

%%newpage

